X:53
C:Page 27
T:Bonny Cumberland. MBe.53
S:Matthew Betham MS, Towcett Cumbria, 1815
O:England;Cumbria;Towcett
Z:VMP – Hugh Taylor, 2012
M:2/4
L:1/8
Q:1/4=120
R:.Reel
N:At the foot of the page is written, in a similar hand, “Matthew Bethams Book 1815” and someone has
N:added in a different hand (in an attempt at clarifying the date?) “? 1815”
N:NB-As written, the A part has only 7 bars. I have added this 7th bar, to make the A part 4 bars repeated.
N:Key sig as in MS, though C# implied in B part
K:G
AD “^Key sig as in MS”FD|AD Fd|AD FD|EFGB|
AD FD|AD Fd|”^NB-bar added”AD FD|EFGB:|
|:D2 dd|e/f/e/d/ cd|D2 dd|B/F/D EF|
D2 dd|e/f/e/d/ cd|f/e/d/c/ dA|FDEF:|

